X:1
T: Come along with me
C:
R:Jig
Q:180
K:G
M:6/8
L:1/16
g2|d2B2G2 G2F2G2|G2B2d2 e2f2g2|d2B2G2 G2B2d2|e2c2A2 A2B2c2|d2B2G2 E2F2G2|D2G2B2 A2B2c2|d2e2c2 B2c2A2|B2G2G2 G4g2|
d2B2G2 G2F2G2|G2B2d2 e2f2g2|d2B2G2 G2B2d2|e2c2A2 A2B2c2|d2B2G2 E2F2G2|D2G2B2 A2B2c2|d2e2c2 B2c2A2|B2G2G2 G4B2|
g2f2g2 G2B2d2|g2b2g2 a2f2d2|g2f2g2 G2B2d2|e2c2A2 A4d2|g2f2e2 d2e2d2|c2B2c2 A2B2c2|d2e2c2 B2c2A2|B2G2G2 G4B2|
g2f2g2 G2B2d2|g2b2g2 a2f2d2|g2f2g2 G2B2d2|e2c2A2 A4d2|g2f2e2 d2e2d2|c2B2c2 A2B2c2|d2e2c2 B2c2A2|B2G2G2 G4||
